dist/images/svg/sprite/media-icon.svg

<svg width="100" height="100" viewBox="0 0 100 100" fill="none" xmlns="http://www.w3.org/2000/svg">
<path d="M39.5833 68.7499L68.7499 49.9999L39.5833 31.2499V68.7499ZM49.9999 91.6666C44.236 91.6666 38.8194 90.5721 33.7499 88.3833C28.6805 86.1971 24.2708 83.2291 20.5208 79.4791C16.7708 75.7291 13.8027 71.3194 11.6166 66.2499C9.4277 61.1805 8.33325 55.7638 8.33325 49.9999C8.33325 44.236 9.4277 38.8194 11.6166 33.7499C13.8027 28.6805 16.7708 24.2708 20.5208 20.5208C24.2708 16.7708 28.6805 13.8013 33.7499 11.6124C38.8194 9.42631 44.236 8.33325 49.9999 8.33325C55.7638 8.33325 61.1805 9.42631 66.2499 11.6124C71.3194 13.8013 75.7291 16.7708 79.4791 20.5208C83.2291 24.2708 86.1971 28.6805 88.3833 33.7499C90.5721 38.8194 91.6666 44.236 91.6666 49.9999C91.6666 55.7638 90.5721 61.1805 88.3833 66.2499C86.1971 71.3194 83.2291 75.7291 79.4791 79.4791C75.7291 83.2291 71.3194 86.1971 66.2499 88.3833C61.1805 90.5721 55.7638 91.6666 49.9999 91.6666Z" fill="black"/>
</svg>

<svg width="100" height="100" fill="none" xmlns="http://www.w3.org/2000/svg"><path d="M39.583 68.75 68.75 50 39.583 31.25v37.5ZM50 91.667c-5.764 0-11.18-1.095-16.25-3.284-5.07-2.186-9.48-5.154-13.23-8.904s-6.717-8.16-8.903-13.23C9.427 61.182 8.333 55.765 8.333 50c0-5.763 1.095-11.18 3.284-16.25 2.186-5.069 5.154-9.478 8.904-13.228s8.16-6.72 13.229-8.909C38.82 9.426 44.236 8.333 50 8.333c5.764 0 11.18 1.093 16.25 3.28 5.07 2.188 9.48 5.158 13.23 8.908 3.75 3.75 6.717 8.16 8.903 13.229 2.19 5.07 3.284 10.486 3.284 16.25 0 5.764-1.095 11.18-3.284 16.25-2.186 5.07-5.154 9.48-8.904 13.23s-8.16 6.717-13.23 8.903c-5.068 2.19-10.485 3.284-16.25 3.284Z" fill="#000"/></svg>
